src/pages/elements/images/i-m-right-mobile.svg

<svg xmlns="http://www.w3.org/2000/svg" viewBox="0 0 288 288"><g fill="none" fill-rule="evenodd"><path fill="#FFF" d="M0 0h288v288H0z"/><path d="M114.48 171H94.32v-5.04h7.056v-40.176H94.32v-5.04h20.16v5.04h-7.056v40.176h7.056V171zm14.472-54c3.024 0 4.392 1.728 4.392 4.248v1.008c0 3.888-2.448 9.216-6.552 12.744h-4.824c2.88-3.024 4.608-5.544 5.4-8.928-1.944-.432-2.808-1.872-2.808-3.816v-1.008c0-2.52 1.368-4.248 4.392-4.248zm18.504 54h-5.76v-37.152h5.76v6.048h.288c1.656-3.816 4.248-6.912 10.008-6.912 4.896 0 9.36 2.232 11.376 7.56h.144c1.368-4.032 4.968-7.56 11.304-7.56 7.56 0 12.096 5.184 12.096 14.184V171h-5.76v-22.824c0-6.552-2.52-10.008-8.136-10.008-4.536 0-8.712 2.304-8.712 7.056V171h-5.76v-22.824c0-6.624-2.52-10.008-7.992-10.008-4.536 0-8.856 2.304-8.856 7.056V171z" fill="#3D3D3D"/></g></svg>

<?xml version="1.0" encoding="UTF-8"?>
<svg width="288px" height="288px" viewBox="0 0 288 288" version="1.1" xmlns="http://www.w3.org/2000/svg" xmlns:xlink="http://www.w3.org/1999/xlink">
    <!-- Generator: Sketch 51.2 (57519) - http://www.bohemiancoding.com/sketch -->
    <title>I'm Right</title>
    <desc>Created with Sketch.</desc>
    <defs></defs>
    <g id="Page-1" stroke="none" stroke-width="1" fill="none" fill-rule="evenodd">
        <g id="Type-Basics-Copy" transform="translate(-352.000000, -4105.000000)">
            <g id="I'm-Right" transform="translate(352.000000, 4105.000000)">
                <rect id="Rectangle-16-Copy-148" fill="#FFFFFF" x="0" y="0" width="288" height="288"></rect>
                <path d="M114.48,171 L94.32,171 L94.32,165.96 L101.376,165.96 L101.376,125.784 L94.32,125.784 L94.32,120.744 L114.48,120.744 L114.48,125.784 L107.424,125.784 L107.424,165.96 L114.48,165.96 L114.48,171 Z M128.952,117 C131.976,117 133.344,118.728 133.344,121.248 L133.344,122.256 C133.344,126.144 130.896,131.472 126.792,135 L121.968,135 C124.848,131.976 126.576,129.456 127.368,126.072 C125.424,125.64 124.56,124.2 124.56,122.256 L124.56,121.248 C124.56,118.728 125.928,117 128.952,117 Z M147.456,171 L141.696,171 L141.696,133.848 L147.456,133.848 L147.456,139.896 L147.744,139.896 C149.4,136.08 151.992,132.984 157.752,132.984 C162.648,132.984 167.112,135.216 169.128,140.544 L169.272,140.544 C170.64,136.512 174.24,132.984 180.576,132.984 C188.136,132.984 192.672,138.168 192.672,147.168 L192.672,171 L186.912,171 L186.912,148.176 C186.912,141.624 184.392,138.168 178.776,138.168 C174.24,138.168 170.064,140.472 170.064,145.224 L170.064,171 L164.304,171 L164.304,148.176 C164.304,141.552 161.784,138.168 156.312,138.168 C151.776,138.168 147.456,140.472 147.456,145.224 L147.456,171 Z" id="I’m" fill="#3D3D3D"></path>
            </g>
        </g>
    </g>
</svg>
